public/img/icons/authentication.svg

<svg width="22" height="22" viewBox="0 0 22 22" fill="none" xmlns="http://www.w3.org/2000/svg">
<path d="M11 0.000488281C4.9255 0.000488281 0 4.92503 0 11C0 17.075 4.92502 21.9995 11 21.9995C17.0755 21.9995 22 17.075 22 11C22 4.92503 17.0755 0.000488281 11 0.000488281ZM11 3.28947C13.01 3.28947 14.6388 4.91874 14.6388 6.92779C14.6388 8.93732 13.01 10.5661 11 10.5661C8.99095 10.5661 7.36216 8.93732 7.36216 6.92779C7.36216 4.91874 8.99095 3.28947 11 3.28947ZM10.9976 19.1237C8.99288 19.1237 7.15681 18.3936 5.74062 17.1852C5.39563 16.8909 5.19656 16.4594 5.19656 16.0067C5.19656 13.9691 6.84565 12.3384 8.88369 12.3384H13.1173C15.1558 12.3384 16.7986 13.9691 16.7986 16.0067C16.7986 16.4599 16.6005 16.8904 16.255 17.1847C14.8393 18.3936 13.0028 19.1237 10.9976 19.1237Z" fill="#2D2A26"/>
</svg>

<svg width="22" height="22" fill="none" xmlns="http://www.w3.org/2000/svg"><path d="M11 0C4.926 0 0 4.925 0 11s4.925 11 11 11c6.076 0 11-4.925 11-11S17.076 0 11 0zm0 3.29a3.639 3.639 0 110 7.277 3.639 3.639 0 010-7.278zm-.002 15.834a8.07 8.07 0 01-5.257-1.939 1.55 1.55 0 01-.544-1.178 3.67 3.67 0 013.687-3.669h4.233a3.664 3.664 0 013.682 3.669c0 .453-.198.883-.544 1.178a8.07 8.07 0 01-5.257 1.939z" fill="#2D2A26"/></svg>
